epam-assets/icon-sources/18/file-file_eml.svg

<svg width="18" height="18" viewBox="0 0 18 18" fill="none" xmlns="http://www.w3.org/2000/svg">
<g id="18/file-file_eml">
<path id="icon" fill-rule="evenodd" clip-rule="evenodd" d="M3 3C3 2.1675 3.6675 1.5 4.5 1.5H10.5L15 6V15C15 15.8284 14.3284 16.5 13.5 16.5H4.5C3.67157 16.5 3 15.8284 3 15V3ZM9.75 2.625V6.75H13.875L9.75 2.625ZM5.25 13.5V9.95069L9 12.4507L12.75 9.95069V13.5C12.75 13.9142 12.4142 14.25 12 14.25H6C5.58579 14.25 5.25 13.9142 5.25 13.5ZM9 11.5493L12.5157 9.20547C12.3813 9.07812 12.1998 9 12 9H6C5.80021 9 5.61867 9.07812 5.48425 9.20547L9 11.5493Z" fill="#6C6F80"/>
</g>
</svg>

<svg xmlns="http://www.w3.org/2000/svg" width="18" height="18" fill="none" viewBox="0 0 18 18">
  <path fill="#6C6F80" fill-rule="evenodd" d="M3 3c0-.833.667-1.5 1.5-1.5h6L15 6v9a1.5 1.5 0 0 1-1.5 1.5h-9A1.5 1.5 0 0 1 3 15V3Zm6.75-.375V6.75h4.125L9.75 2.625ZM5.25 13.5V9.95L9 12.45l3.75-2.5v3.55a.75.75 0 0 1-.75.75H6a.75.75 0 0 1-.75-.75ZM9 11.55l3.516-2.345A.747.747 0 0 0 12 9H6a.75.75 0 0 0-.516.205L9 11.55Z" clip-rule="evenodd"/>
</svg>
